; generated by Slic3r 1.2.9 on 2017-10-22 at 10:57:10

; external perimeters extrusion width = 0.50mm
; perimeters extrusion width = 0.85mm
; infill extrusion width = 1.02mm
; solid infill extrusion width = 0.85mm
; top infill extrusion width = 0.85mm
; support material extrusion width = 0.50mm

M107
M190 S75 ; set bed temperature
M104 S230 ; set temperature
G28 ; home all axes
G1 Z5 F5000 ; lift nozzle

M109 S230 ; wait for temperature to be reached
G21 ; set units to millimeters
G90 ; use absolute coordinates
M82 ; use absolute distances for extrusion
G92 E0
G1 E-2.00000 F2400.00000
G92 E0
G1 X67.210 Y68.262 F6000.000
G1 Z0.400 F6000.000
G1 E2.00000 F2400.00000
G1 X69.964 Y65.645 E2.45115 F1200.000
G1 X70.589 Y65.108 E2.54911
G1 X73.593 Y62.782 E3.00026
G1 X74.270 Y62.311 E3.09822
G1 X77.494 Y60.302 E3.54938
G1 X78.215 Y59.902 E3.64734
G1 X81.626 Y58.229 E4.09849
G1 X82.384 Y57.903 E4.19645
G1 X85.946 Y56.584 E4.64760
G1 X86.733 Y56.337 E4.74556
G1 X90.410 Y55.385 E5.19671
G1 X91.218 Y55.219 E5.29467
G1 X94.973 Y54.644 E5.74582
G1 X95.794 Y54.560 E5.84376
G1 X99.588 Y54.368 E6.29493
G1 X100.686 Y54.382 E6.42544
G1 X104.206 Y54.560 E6.84401 F1200.000
G1 X105.027 Y54.644 E6.94197
G1 X108.782 Y55.219 E7.39313
G1 X109.590 Y55.385 E7.49108
G1 X113.267 Y56.337 E7.94224
G1 X114.054 Y56.584 E8.04020
G1 X117.616 Y57.903 E8.49135
G1 X118.374 Y58.229 E8.58931
G1 X121.785 Y59.902 E9.04046
G1 X122.506 Y60.302 E9.13841
G1 X124.281 Y61.408 E9.38679
G1 X125.730 Y62.311 E9.58957
G1 X126.407 Y62.782 E9.68753
G1 X129.411 Y65.108 E10.13868
G1 X130.036 Y65.645 E10.23664
G1 X132.790 Y68.262 E10.68780
G1 X133.358 Y68.860 E10.78576
G1 X135.832 Y71.742 E11.23691
G1 X136.337 Y72.394 E11.33486
G1 X138.507 Y75.512 E11.78602
G1 X138.944 Y76.212 E11.88398
G1 X140.787 Y79.534 E12.33513
G1 X141.150 Y80.274 E12.43309
G1 X142.648 Y83.765 E12.88424
G1 X142.935 Y84.539 E12.98220
G1 X144.072 Y88.163 E13.43336
G1 X144.279 Y88.961 E13.53131
G1 X145.043 Y92.682 E13.98247
G1 X145.168 Y93.498 E14.08042
G1 X145.553 Y97.277 E14.53157
G1 X145.594 Y98.101 E14.62954
G1 X145.594 Y101.899 E15.08069
G1 X145.553 Y102.723 E15.17865
G1 X145.168 Y106.502 E15.62981
G1 X145.043 Y107.318 E15.72776
G1 X144.279 Y111.039 E16.17891
G1 X144.072 Y111.837 E16.27687
G1 X142.935 Y115.461 E16.72802
G1 X142.648 Y116.235 E16.82599
G1 X141.150 Y119.726 E17.27714
G1 X140.787 Y120.466 E17.37509
G1 X138.944 Y123.788 E17.82624
G1 X138.507 Y124.488 E17.92421
G1 X136.337 Y127.606 E18.37536
G1 X135.832 Y128.258 E18.47331
G1 X133.358 Y131.140 E18.92447
G1 X132.790 Y131.738 E19.02243
G1 X130.036 Y134.355 E19.47358
G1 X129.411 Y134.892 E19.57154
G1 X126.407 Y137.218 E20.02269
G1 X125.730 Y137.689 E20.12065
G1 X122.506 Y139.698 E20.57181
G1 X121.785 Y140.098 E20.66976
G1 X118.374 Y141.771 E21.12091
G1 X117.616 Y142.097 E21.21888
G1 X114.054 Y143.416 E21.67003
G1 X113.267 Y143.663 E21.76799
G1 X109.590 Y144.615 E22.21914
G1 X108.782 Y144.781 E22.31710
G1 X105.027 Y145.356 E22.76825
G1 X104.206 Y145.440 E22.86621
G1 X100.412 Y145.632 E23.31736
G1 X99.588 Y145.632 E23.41532
G1 X95.794 Y145.440 E23.86647
G1 X94.973 Y145.356 E23.96443
G1 X91.218 Y144.781 E24.41559
G1 X90.410 Y144.615 E24.51354
G1 X86.733 Y143.663 E24.96470
G1 X85.946 Y143.416 E25.06266
G1 X82.384 Y142.097 E25.51381
G1 X81.626 Y141.771 E25.61177
G1 X78.215 Y140.098 E26.06292
G1 X77.494 Y139.698 E26.16088
G1 X74.270 Y137.689 E26.61203
G1 X73.593 Y137.218 E26.70999
G1 X70.589 Y134.892 E27.16114
G1 X69.964 Y134.355 E27.25910
G1 X67.210 Y131.738 E27.71026
G1 X66.642 Y131.140 E27.80821
G1 X64.168 Y128.258 E28.25937
G1 X63.663 Y127.606 E28.35732
G1 X61.493 Y124.488 E28.80848
G1 X61.056 Y123.788 E28.90644
G1 X59.213 Y120.466 E29.35759
G1 X58.850 Y119.726 E29.45555
G1 X57.352 Y116.235 E29.90670
G1 X57.065 Y115.462 E30.00466
G1 X55.928 Y111.837 E30.45581
G1 X55.721 Y111.039 E30.55377
G1 X54.957 Y107.318 E31.00493
G1 X54.832 Y106.502 E31.10287
G1 X54.447 Y102.723 E31.55404
G1 X54.406 Y101.899 E31.65200
G1 X54.406 Y98.101 E32.10315
G1 X54.447 Y97.277 E32.20111
G1 X54.832 Y93.498 E32.65226
G1 X54.957 Y92.682 E32.75022
G1 X55.721 Y88.961 E33.20138
G1 X55.928 Y88.163 E33.29933
G1 X57.065 Y84.538 E33.75048
G1 X57.352 Y83.765 E33.84844
G1 X58.850 Y80.274 E34.29960
G1 X59.213 Y79.534 E34.39755
G1 X60.909 Y76.478 E34.81261
G1 X61.493 Y75.512 E34.94663
G1 X63.663 Y72.394 E35.39779
G1 X64.168 Y71.742 E35.49574
G1 X66.642 Y68.860 E35.94690
G1 X67.159 Y68.316 E36.03595
G1 X67.702 Y68.780 F6000.000
G1 X70.456 Y66.163 E36.48710 F1200.000
G1 X71.027 Y65.672 E36.57647
G1 X74.031 Y63.347 E37.02762
G1 X74.648 Y62.917 E37.11698
G1 X77.872 Y60.908 E37.56814
G1 X78.530 Y60.543 E37.65751
G1 X81.940 Y58.870 E38.10866
G1 X82.632 Y58.573 E38.19803
G1 X86.194 Y57.254 E38.64918
G1 X86.912 Y57.029 E38.73855
G1 X90.589 Y56.076 E39.18970
G1 X91.326 Y55.925 E39.27907
G1 X95.081 Y55.350 E39.73022
G1 X95.830 Y55.274 E39.81957
G1 X99.624 Y55.081 E40.27074
G1 X100.650 Y55.095 E40.39266
G1 X104.170 Y55.274 E40.81123 F1200.000
G1 X104.919 Y55.350 E40.90060
G1 X108.674 Y55.925 E41.35175
G1 X109.411 Y56.076 E41.44111
G1 X113.088 Y57.029 E41.89227
G1 X113.806 Y57.254 E41.98163
G1 X117.368 Y58.573 E42.43279
G1 X118.060 Y58.870 E42.52215
G1 X121.470 Y60.543 E42.97331
G1 X122.128 Y60.908 E43.06267
G1 X123.777 Y61.936 E43.29341
G1 X125.352 Y62.917 E43.51383
G1 X125.969 Y63.347 E43.60319
G1 X128.973 Y65.672 E44.05435
G1 X129.544 Y66.163 E44.14371
G1 X132.298 Y68.780 E44.59487
G1 X132.816 Y69.325 E44.68423
G1 X135.290 Y72.207 E45.13539
G1 X135.751 Y72.802 E45.22475
G1 X137.921 Y75.920 E45.67590
G1 X138.319 Y76.559 E45.76527
G1 X140.163 Y79.880 E46.21643
G1 X140.494 Y80.556 E46.30579
G1 X141.992 Y84.047 E46.75694
G1 X142.253 Y84.752 E46.84631
G1 X143.391 Y88.377 E47.29747
G1 X143.579 Y89.105 E47.38683
G1 X144.344 Y92.826 E47.83798
G1 X144.458 Y93.570 E47.92735
G1 X144.842 Y97.349 E48.37850
G1 X144.880 Y98.101 E48.46787
G1 X144.880 Y101.899 E48.91902
G1 X144.842 Y102.651 E49.00839
G1 X144.458 Y106.430 E49.45956
G1 X144.344 Y107.174 E49.54891
G1 X143.579 Y110.895 E50.00006
G1 X143.391 Y111.623 E50.08943
G1 X142.253 Y115.248 E50.54058
G1 X141.992 Y115.953 E50.62995
G1 X140.494 Y119.444 E51.08111
G1 X140.163 Y120.120 E51.17047
G1 X138.319 Y123.441 E51.62162
G1 X137.921 Y124.080 E51.71099
G1 X135.751 Y127.198 E52.16214
G1 X135.290 Y127.793 E52.25151
G1 X132.816 Y130.675 E52.70266
G1 X132.298 Y131.220 E52.79203
G1 X129.544 Y133.837 E53.24318
G1 X128.973 Y134.328 E53.33255
G1 X125.969 Y136.653 E53.78370
G1 X125.352 Y137.083 E53.87307
G1 X122.128 Y139.092 E54.32422
G1 X121.470 Y139.457 E54.41359
G1 X118.060 Y141.130 E54.86474
G1 X117.368 Y141.427 E54.95411
G1 X113.806 Y142.746 E55.40526
G1 X113.088 Y142.971 E55.49463
G1 X109.411 Y143.924 E55.94578
G1 X108.674 Y144.075 E56.03515
G1 X104.919 Y144.650 E56.48630
G1 X104.170 Y144.726 E56.57567
G1 X100.376 Y144.919 E57.02682
G1 X99.624 Y144.919 E57.11619
G1 X95.830 Y144.726 E57.56734
G1 X95.081 Y144.650 E57.65671
G1 X91.326 Y144.075 E58.10786
G1 X90.589 Y143.924 E58.19723
G1 X86.912 Y142.971 E58.64838
G1 X86.194 Y142.746 E58.73775
G1 X82.632 Y141.427 E59.18890
G1 X81.940 Y141.130 E59.27827
G1 X78.530 Y139.457 E59.72942
G1 X77.872 Y139.092 E59.81879
G1 X74.648 Y137.083 E60.26994
G1 X74.031 Y136.653 E60.35931
G1 X71.027 Y134.328 E60.81046
G1 X70.456 Y133.837 E60.89983
G1 X67.702 Y131.220 E61.35098
G1 X67.184 Y130.675 E61.44034
G1 X64.710 Y127.793 E61.89150
G1 X64.249 Y127.198 E61.98086
G1 X62.079 Y124.080 E62.43202
G1 X61.681 Y123.441 E62.52139
G1 X59.837 Y120.120 E62.97254
G1 X59.506 Y119.444 E63.06190
G1 X58.008 Y115.953 E63.51306
G1 X57.747 Y115.248 E63.60242
G1 X56.609 Y111.623 E64.05358
G1 X56.421 Y110.895 E64.14295
G1 X55.656 Y107.174 E64.59410
G1 X55.542 Y106.430 E64.68345
G1 X55.158 Y102.651 E65.13462
G1 X55.120 Y101.899 E65.22398
G1 X55.120 Y98.101 E65.67514
G1 X55.158 Y97.349 E65.76450
G1 X55.542 Y93.570 E66.21566
G1 X55.656 Y92.826 E66.30502
G1 X56.421 Y89.105 E66.75618
G1 X56.609 Y88.377 E66.84554
G1 X57.747 Y84.752 E67.29670
G1 X58.008 Y84.047 E67.38606
G1 X59.506 Y80.556 E67.83722
G1 X59.837 Y79.880 E67.92658
G1 X61.533 Y76.825 E68.34165
G1 X62.079 Y75.920 E68.46707
G1 X64.249 Y72.802 E68.91822
G1 X64.710 Y72.207 E69.00759
G1 X67.184 Y69.325 E69.45874
G1 X67.651 Y68.834 E69.53920
G1 X68.194 Y69.297 F6000.000
G1 X70.948 Y66.680 E69.99035 F1200.000
G1 X71.464 Y66.237 E70.07113
G1 X74.468 Y63.912 E70.52228
G1 X75.026 Y63.523 E70.60305
G1 X78.250 Y61.514 E71.05421
G1 X78.844 Y61.184 E71.13499
G1 X82.255 Y59.511 E71.58614
G1 X82.880 Y59.243 E71.66691
G1 X86.442 Y57.924 E72.11807
G1 X87.091 Y57.720 E72.19884
G1 X90.768 Y56.768 E72.65000
G1 X91.435 Y56.631 E72.73077
G1 X95.189 Y56.056 E73.18192
G1 X95.866 Y55.987 E73.26268
G1 X99.660 Y55.794 E73.71385
G1 X100.614 Y55.808 E73.82718
G1 X104.134 Y55.987 E74.24575 F1200.000
G1 X104.811 Y56.056 E74.32652
G1 X108.565 Y56.631 E74.77768
G1 X109.232 Y56.768 E74.85845
G1 X112.909 Y57.720 E75.30960
G1 X113.558 Y57.924 E75.39038
G1 X117.120 Y59.243 E75.84153
G1 X117.745 Y59.511 E75.92231
G1 X121.156 Y61.184 E76.37346
G1 X121.750 Y61.514 E76.45423
G1 X123.399 Y62.542 E76.68497
G1 X124.974 Y63.523 E76.90539
G1 X125.532 Y63.912 E76.98616
G1 X128.536 Y66.237 E77.43732
G1 X129.052 Y66.680 E77.51809
G1 X131.806 Y69.297 E77.96924
G1 X132.274 Y69.790 E78.05002
G1 X134.749 Y72.673 E78.50117
G1 X135.165 Y73.210 E78.58195
G1 X137.335 Y76.328 E79.03310
G1 X137.695 Y76.905 E79.11388
G1 X139.538 Y80.227 E79.56503
G1 X139.838 Y80.837 E79.64580
G1 X141.336 Y84.328 E80.09695
G1 X141.572 Y84.966 E80.17773
G1 X142.709 Y88.591 E80.62888
G1 X142.880 Y89.249 E80.70966
G1 X143.644 Y92.970 E81.16081
G1 X143.747 Y93.642 E81.24158
G1 X144.132 Y97.421 E81.69274
G1 X144.166 Y98.101 E81.77351
G1 X144.166 Y101.899 E82.22467
G1 X144.132 Y102.579 E82.30544
G1 X143.747 Y106.358 E82.75661
G1 X143.644 Y107.030 E82.83737
G1 X142.880 Y110.751 E83.28852
G1 X142.709 Y111.409 E83.36929
G1 X141.572 Y115.034 E83.82045
G1 X141.336 Y115.672 E83.90123
G1 X139.838 Y119.163 E84.35238
G1 X139.538 Y119.773 E84.43315
G1 X137.695 Y123.095 E84.88430
G1 X137.335 Y123.672 E84.96508
G1 X135.165 Y126.790 E85.41624
G1 X134.749 Y127.327 E85.49701
G1 X132.274 Y130.210 E85.94816
G1 X131.806 Y130.703 E86.02894
G1 X129.052 Y133.320 E86.48009
G1 X128.536 Y133.763 E86.56087
G1 X125.532 Y136.088 E87.01202
G1 X124.974 Y136.477 E87.09279
G1 X121.750 Y138.486 E87.54395
G1 X121.156 Y138.816 E87.62472
G1 X117.745 Y140.489 E88.07587
G1 X117.120 Y140.757 E88.15665
G1 X113.558 Y142.076 E88.60780
G1 X112.909 Y142.280 E88.68858
G1 X109.232 Y143.232 E89.13973
G1 X108.565 Y143.369 E89.22050
G1 X104.811 Y143.944 E89.67166
G1 X104.134 Y144.013 E89.75243
G1 X100.340 Y144.206 E90.20359
G1 X99.660 Y144.206 E90.28436
G1 X95.866 Y144.013 E90.73551
G1 X95.189 Y143.944 E90.81629
G1 X91.435 Y143.369 E91.26744
G1 X90.768 Y143.232 E91.34822
G1 X87.091 Y142.280 E91.79937
G1 X86.442 Y142.076 E91.88015
G1 X82.880 Y140.757 E92.33130
G1 X82.255 Y140.489 E92.41207
G1 X78.844 Y138.816 E92.86323
G1 X78.250 Y138.486 E92.94400
G1 X75.026 Y136.477 E93.39515
G1 X74.468 Y136.088 E93.47593
G1 X71.464 Y133.763 E93.92708
G1 X70.948 Y133.320 E94.00786
G1 X68.194 Y130.703 E94.45901
G1 X67.726 Y130.210 E94.53978
G1 X65.251 Y127.327 E94.99094
G1 X64.835 Y126.790 E95.07171
G1 X62.665 Y123.672 E95.52286
G1 X62.305 Y123.095 E95.60364
G1 X60.462 Y119.773 E96.05479
G1 X60.162 Y119.163 E96.13557
G1 X58.664 Y115.672 E96.58672
G1 X58.428 Y115.034 E96.66750
G1 X57.291 Y111.409 E97.11865
G1 X57.120 Y110.751 E97.19942
G1 X56.356 Y107.030 E97.65058
G1 X56.253 Y106.358 E97.73134
G1 X55.868 Y102.579 E98.18250
G1 X55.834 Y101.899 E98.26328
G1 X55.834 Y98.101 E98.71443
G1 X55.868 Y97.421 E98.79521
G1 X56.253 Y93.642 E99.24636
G1 X56.356 Y92.970 E99.32714
G1 X57.120 Y89.249 E99.77829
G1 X57.291 Y88.591 E99.85906
G1 X58.428 Y84.966 E100.31022
G1 X58.664 Y84.328 E100.39099
G1 X60.162 Y80.837 E100.84214
G1 X60.462 Y80.227 E100.92292
G1 X62.158 Y77.171 E101.33798
G1 X62.665 Y76.328 E101.45481
G1 X64.835 Y73.210 E101.90597
G1 X65.251 Y72.673 E101.98674
G1 X67.726 Y69.790 E102.43790
G1 X68.143 Y69.352 E102.50976
G1 E100.50976 F2400.00000
G92 E0
G1 X76.245 Y117.033 F6000.000
G1 E2.00000 F2400.00000
G1 X75.969 Y117.626 E2.07766 F1200.000
G1 X75.594 Y118.161 E2.15533
G1 X75.132 Y118.624 E2.23299
G1 X74.596 Y118.999 E2.31066
G1 X74.003 Y119.275 E2.38832
G1 X73.372 Y119.445 E2.46599
G1 X72.720 Y119.502 E2.54365
G1 X72.069 Y119.445 E2.62132
G1 X71.437 Y119.275 E2.69898
G1 X70.844 Y118.999 E2.77665
G1 X70.309 Y118.624 E2.85431
G1 X69.846 Y118.161 E2.93198
G1 X69.471 Y117.626 E3.00964
G1 X69.195 Y117.033 E3.08731
G1 X69.026 Y116.401 E3.16497
G1 X68.968 Y115.747 E3.24294
G1 X69.038 Y115.051 E3.32608
G1 X69.195 Y114.467 E3.39789
G1 X69.471 Y113.874 E3.47555
G1 X69.846 Y113.339 E3.55322
G1 X70.309 Y112.876 E3.63088
G1 X70.844 Y112.501 E3.70855
G1 X71.439 Y112.224 E3.78652
G1 X72.118 Y112.051 E3.86965
G1 X72.720 Y111.998 E3.94146 F1200.000
G1 X73.372 Y112.055 E4.01913
G1 X74.003 Y112.225 E4.09679
G1 X74.596 Y112.501 E4.17446
G1 X75.132 Y112.876 E4.25212
G1 X75.594 Y113.339 E4.32979
G1 X75.969 Y113.874 E4.40745
G1 X76.245 Y114.467 E4.48511
G1 X76.415 Y115.099 E4.56278
G1 X76.472 Y115.750 E4.64044
G1 X76.415 Y116.401 E4.71811
G1 X76.265 Y116.961 E4.78687
G1 X76.556 Y117.425 F6000.000
G1 E2.78687 F2400.00000
G92 E0
G1 X98.124 Y71.749 F6000.000
G1 E2.00000 F2400.00000
G1 X97.589 Y71.374 E2.07766 F1200.000
G1 X97.126 Y70.911 E2.15533
G1 X96.751 Y70.376 E2.23299
G1 X96.475 Y69.783 E2.31066
G1 X96.305 Y69.151 E2.38832
G1 X96.248 Y68.500 E2.46599
G1 X96.305 Y67.849 E2.54365
G1 X96.475 Y67.217 E2.62132
G1 X96.751 Y66.624 E2.69898
G1 X97.126 Y66.089 E2.77665
G1 X97.589 Y65.626 E2.85431
G1 X98.124 Y65.251 E2.93198
G1 X98.719 Y64.974 E3.00995
G1 X99.398 Y64.801 E3.09308
G1 X100.000 Y64.748 E3.16489 F1200.000
G1 X100.651 Y64.805 E3.24256
G1 X101.283 Y64.975 E3.32022
G1 X101.876 Y65.251 E3.39789
G1 X102.411 Y65.626 E3.47555
G1 X102.874 Y66.089 E3.55321
G1 X103.249 Y66.624 E3.63088
G1 X103.525 Y67.217 E3.70854
G1 X103.695 Y67.849 E3.78621
G1 X103.752 Y68.500 E3.86387
G1 X103.695 Y69.151 E3.94154
G1 X103.525 Y69.783 E4.01920
G1 X103.249 Y70.376 E4.09687
G1 X102.874 Y70.911 E4.17453
G1 X102.411 Y71.374 E4.25220
G1 X101.876 Y71.749 E4.32986
G1 X101.283 Y72.025 E4.40753
G1 X100.651 Y72.195 E4.48519
G1 X100.000 Y72.252 E4.56286
G1 X99.349 Y72.195 E4.64052
G1 X98.717 Y72.025 E4.71818
G1 X98.192 Y71.781 E4.78694
G1 X97.684 Y71.986 F6000.000
G1 E2.78694 F2400.00000
G92 E0
G1 X76.262 Y120.619 F6000.000
G1 E2.00000 F2400.00000
G1 X77.636 Y118.569 E2.29311 F1200.000
G1 X77.981 Y117.857 E2.38705
G1 X78.223 Y117.104 E2.48099
G1 X78.358 Y116.325 E2.57494
G1 X78.420 Y114.390 E2.80489
G1 X95.961 Y104.262 E5.21054
G1 X97.787 Y105.216 E5.45520
G1 X98.649 Y105.502 E5.56307
G1 X99.546 Y105.648 E5.67094
G1 X100.454 Y105.648 E5.77881
G1 X101.351 Y105.502 E5.88669
G1 X102.213 Y105.216 E5.99456
G1 X104.039 Y104.262 E6.23922
G1 X121.580 Y114.390 E8.64487
G1 X121.642 Y116.319 E8.87416
G1 X121.790 Y117.144 E8.97368
G1 X122.019 Y117.857 E9.06265
G1 X122.364 Y118.569 E9.15660
G1 X123.738 Y120.619 E9.44970
G1 X120.222 Y123.931 E10.02338
G1 X117.526 Y125.971 E10.42482
G1 X114.626 Y127.707 E10.82625
G1 X111.556 Y129.122 E11.22769
G1 X108.352 Y130.197 E11.62912
G1 X105.050 Y130.921 E12.03056
G1 X101.690 Y131.285 E12.43199
G1 X98.310 Y131.285 E12.83343
G1 X94.950 Y130.921 E13.23486
G1 X91.648 Y130.197 E13.63630
G1 X88.444 Y129.122 E14.03773
G1 X85.374 Y127.707 E14.43917
G1 X82.474 Y125.971 E14.84060
G1 X79.778 Y123.931 E15.24204
G1 X76.317 Y120.671 E15.80681
G1 X77.192 Y120.514 F6000.000
G1 X78.257 Y118.925 E16.03398 F1200.000
G1 X78.646 Y118.124 E16.13980
G1 X78.918 Y117.275 E16.24561
G1 X79.070 Y116.397 E16.35142
G1 X79.121 Y114.810 E16.54011
G1 X95.979 Y105.077 E18.85196
G1 X97.508 Y105.875 E19.05683
G1 X98.478 Y106.198 E19.17834
G1 X99.488 Y106.362 E19.29986
G1 X100.512 Y106.362 E19.42137
G1 X101.522 Y106.198 E19.54288
G1 X102.492 Y105.875 E19.66439
G1 X104.021 Y105.077 E19.86926
G1 X120.879 Y114.810 E22.18111
G1 X120.929 Y116.394 E22.36940
