; generated by Slic3r 1.2.9 on 2017-10-22 at 11:35:02

; external perimeters extrusion width = 0.50mm
; perimeters extrusion width = 0.85mm
; infill extrusion width = 1.02mm
; solid infill extrusion width = 0.85mm
; top infill extrusion width = 0.85mm
; support material extrusion width = 0.50mm

M107
M190 S75 ; set bed temperature
M104 S230 ; set temperature
G28 ; home all axes
G1 Z5 F5000 ; lift nozzle

M109 S230 ; wait for temperature to be reached
G21 ; set units to millimeters
G90 ; use absolute coordinates
M82 ; use absolute distances for extrusion
G92 E0
G1 Z0.400 F6000.000
G1 E-2.00000 F2400.00000
G92 E0
G1 X67.210 Y68.262 F6000.000
G1 E2.00000 F2400.00000
G1 X69.964 Y65.645 E2.45115 F1200.000
G1 X70.589 Y65.108 E2.54911
G1 X73.593 Y62.782 E3.00026
G1 X74.270 Y62.311 E3.09822
G1 X77.494 Y60.302 E3.54938
G1 X78.215 Y59.902 E3.64733
G1 X81.626 Y58.229 E4.09849
G1 X82.384 Y57.903 E4.19645
G1 X85.946 Y56.584 E4.64760
G1 X86.733 Y56.337 E4.74556
G1 X90.410 Y55.385 E5.19671
G1 X91.218 Y55.219 E5.29467
G1 X94.973 Y54.644 E5.74582
G1 X95.794 Y54.560 E5.84378
G1 X99.588 Y54.368 E6.29493
G1 X100.755 Y54.385 E6.43358
G1 X104.206 Y54.560 E6.84401 F1200.000
G1 X105.027 Y54.644 E6.94197
G1 X108.782 Y55.219 E7.39312
G1 X109.590 Y55.385 E7.49108
G1 X113.267 Y56.337 E7.94223
G1 X114.054 Y56.584 E8.04019
G1 X117.616 Y57.903 E8.49134
G1 X118.374 Y58.229 E8.58930
G1 X121.785 Y59.902 E9.04046
G1 X122.506 Y60.302 E9.13841
G1 X125.407 Y62.110 E9.54445
G1 X125.730 Y62.311 E9.58957
G1 X126.407 Y62.782 E9.68753
G1 X129.411 Y65.108 E10.13868
G1 X130.036 Y65.645 E10.23664
G1 X132.790 Y68.262 E10.68779
G1 X133.358 Y68.860 E10.78575
G1 X135.832 Y71.742 E11.23690
G1 X136.337 Y72.394 E11.33486
G1 X138.507 Y75.512 E11.78601
G1 X138.944 Y76.212 E11.88397
G1 X140.787 Y79.534 E12.33513
G1 X141.150 Y80.274 E12.43308
G1 X142.648 Y83.765 E12.88423
G1 X142.935 Y84.539 E12.98220
G1 X144.072 Y88.163 E13.43335
G1 X144.279 Y88.961 E13.53131
G1 X145.043 Y92.682 E13.98246
G1 X145.168 Y93.498 E14.08042
G1 X145.553 Y97.277 E14.53157
G1 X145.594 Y98.101 E14.62953
G1 X145.594 Y101.899 E15.08068
G1 X145.553 Y102.723 E15.17864
G1 X145.168 Y106.502 E15.62981
G1 X145.043 Y107.318 E15.72775
G1 X144.279 Y111.039 E16.17890
G1 X144.072 Y111.837 E16.27686
G1 X142.935 Y115.461 E16.72802
G1 X142.648 Y116.235 E16.82598
G1 X141.150 Y119.726 E17.27713
G1 X140.787 Y120.466 E17.37509
G1 X138.944 Y123.788 E17.82624
G1 X138.507 Y124.488 E17.92420
G1 X136.337 Y127.606 E18.37535
G1 X135.832 Y128.258 E18.47331
G1 X133.358 Y131.140 E18.92452
G1 X132.790 Y131.738 E19.02242
G1 X130.036 Y134.355 E19.47357
G1 X129.411 Y134.892 E19.57154
G1 X126.407 Y137.218 E20.02269
G1 X125.730 Y137.689 E20.12065
G1 X122.506 Y139.698 E20.57180
G1 X121.785 Y140.098 E20.66976
G1 X118.374 Y141.771 E21.12091
G1 X117.616 Y142.097 E21.21887
G1 X114.054 Y143.416 E21.67002
G1 X113.267 Y143.663 E21.76798
G1 X109.590 Y144.615 E22.21913
G1 X108.782 Y144.781 E22.31709
G1 X105.027 Y145.356 E22.76824
G1 X104.206 Y145.440 E22.86620
G1 X100.412 Y145.632 E23.31736
G1 X99.588 Y145.632 E23.41532
G1 X96.126 Y145.456 E23.82700
G1 X94.973 Y145.356 E23.96439
G1 X91.218 Y144.781 E24.41554
G1 X90.410 Y144.615 E24.51350
G1 X86.733 Y143.663 E24.96465
G1 X85.946 Y143.416 E25.06262
G1 X82.384 Y142.097 E25.51377
G1 X81.626 Y141.771 E25.61173
G1 X78.215 Y140.098 E26.06288
G1 X77.494 Y139.698 E26.16084
G1 X74.270 Y137.689 E26.61199
G1 X73.593 Y137.218 E26.70995
G1 X70.589 Y134.892 E27.16110
G1 X69.964 Y134.355 E27.25906
G1 X67.210 Y131.738 E27.71022
G1 X66.643 Y131.141 E27.80809
G1 X64.168 Y128.258 E28.25933
G1 X63.663 Y127.606 E28.35728
G1 X61.493 Y124.488 E28.80844
G1 X61.056 Y123.788 E28.90640
G1 X59.213 Y120.466 E29.35755
G1 X58.850 Y119.726 E29.45551
G1 X57.352 Y116.235 E29.90666
G1 X57.065 Y115.462 E30.00462
G1 X55.928 Y111.837 E30.45577
G1 X55.721 Y111.039 E30.55373
G1 X54.957 Y107.318 E31.00488
G1 X54.832 Y106.502 E31.10284
G1 X54.447 Y102.723 E31.55399
G1 X54.406 Y101.899 E31.65195
G1 X54.406 Y98.101 E32.10311
G1 X54.447 Y97.277 E32.20107
G1 X54.832 Y93.498 E32.65222
G1 X54.957 Y92.682 E32.75018
G1 X55.721 Y88.961 E33.20133
G1 X55.928 Y88.163 E33.29929
G1 X57.065 Y84.538 E33.75044
G1 X57.352 Y83.765 E33.84840
G1 X58.850 Y80.274 E34.29955
G1 X59.213 Y79.534 E34.39751
G1 X61.056 Y76.212 E34.84866
G1 X61.493 Y75.512 E34.94662
G1 X63.663 Y72.394 E35.39778
G1 X64.168 Y71.742 E35.49573
G1 X66.642 Y68.860 E35.94689
G1 X67.159 Y68.316 E36.03594
G1 X67.702 Y68.780 F6000.000
G1 X70.456 Y66.163 E36.48709 F1200.000
G1 X71.027 Y65.672 E36.57646
G1 X74.031 Y63.347 E37.02761
G1 X74.648 Y62.917 E37.11698
G1 X77.872 Y60.908 E37.56813
G1 X78.530 Y60.543 E37.65750
G1 X81.940 Y58.870 E38.10865
G1 X82.632 Y58.573 E38.19802
G1 X86.194 Y57.254 E38.64917
G1 X86.912 Y57.029 E38.73854
G1 X90.589 Y56.076 E39.18969
G1 X91.326 Y55.925 E39.27906
G1 X95.081 Y55.350 E39.73021
G1 X95.830 Y55.274 E39.81958
G1 X99.624 Y55.081 E40.27073
G1 X100.719 Y55.099 E40.40079
G1 X104.170 Y55.274 E40.81121 F1200.000
G1 X104.919 Y55.350 E40.90058
G1 X108.674 Y55.925 E41.35173
G1 X109.411 Y56.076 E41.44110
G1 X113.088 Y57.029 E41.89225
G1 X113.806 Y57.254 E41.98162
G1 X117.368 Y58.573 E42.43277
G1 X118.060 Y58.870 E42.52214
G1 X121.470 Y60.543 E42.97330
G1 X122.128 Y60.908 E43.06266
G1 X125.029 Y62.716 E43.46870
G1 X125.352 Y62.917 E43.51381
G1 X125.969 Y63.347 E43.60318
G1 X128.973 Y65.672 E44.05433
G1 X129.544 Y66.163 E44.14370
G1 X132.298 Y68.780 E44.59485
G1 X132.816 Y69.325 E44.68422
G1 X135.290 Y72.207 E45.13537
G1 X135.751 Y72.802 E45.22474
G1 X137.921 Y75.920 E45.67589
G1 X138.319 Y76.559 E45.76526
G1 X140.163 Y79.880 E46.21641
G1 X140.494 Y80.556 E46.30578
G1 X141.992 Y84.047 E46.75693
G1 X142.253 Y84.752 E46.84630
G1 X143.391 Y88.377 E47.29745
G1 X143.579 Y89.105 E47.38682
G1 X144.344 Y92.826 E47.83797
G1 X144.458 Y93.570 E47.92734
G1 X144.842 Y97.349 E48.37849
G1 X144.880 Y98.101 E48.46786
G1 X144.880 Y101.899 E48.91901
G1 X144.842 Y102.651 E49.00838
G1 X144.458 Y106.430 E49.45954
G1 X144.344 Y107.174 E49.54890
G1 X143.579 Y110.895 E50.00005
G1 X143.391 Y111.623 E50.08941
G1 X142.253 Y115.248 E50.54057
G1 X141.992 Y115.953 E50.62994
G1 X140.494 Y119.444 E51.08109
G1 X140.163 Y120.120 E51.17046
G1 X138.319 Y123.441 E51.62161
G1 X137.921 Y124.080 E51.71098
G1 X135.751 Y127.198 E52.16213
G1 X135.290 Y127.793 E52.25150
G1 X132.816 Y130.675 E52.70270
G1 X132.298 Y131.220 E52.79202
G1 X129.544 Y133.837 E53.24317
G1 X128.973 Y134.328 E53.33254
G1 X125.969 Y136.653 E53.78369
G1 X125.352 Y137.083 E53.87306
G1 X122.128 Y139.092 E54.32421
G1 X121.470 Y139.457 E54.41357
G1 X118.060 Y141.130 E54.86473
G1 X117.368 Y141.427 E54.95410
G1 X113.806 Y142.746 E55.40525
G1 X113.088 Y142.971 E55.49462
G1 X109.411 Y143.924 E55.94577
G1 X108.674 Y144.075 E56.03513
G1 X104.919 Y144.650 E56.48629
G1 X104.170 Y144.726 E56.57566
G1 X100.376 Y144.919 E57.02681
G1 X99.624 Y144.919 E57.11618
G1 X95.830 Y144.726 E57.56733
G1 X95.081 Y144.650 E57.65670
G1 X91.326 Y144.075 E58.10785
G1 X90.589 Y143.924 E58.19721
G1 X86.912 Y142.971 E58.64836
G1 X86.194 Y142.746 E58.73773
G1 X82.632 Y141.427 E59.18889
G1 X81.940 Y141.130 E59.27825
G1 X78.530 Y139.457 E59.72941
G1 X77.872 Y139.092 E59.81877
G1 X74.648 Y137.083 E60.26992
G1 X74.031 Y136.653 E60.35929
G1 X71.027 Y134.328 E60.81044
G1 X70.456 Y133.837 E60.89981
G1 X67.702 Y131.220 E61.35097
G1 X67.184 Y130.675 E61.44026
G1 X64.710 Y127.793 E61.89149
G1 X64.249 Y127.198 E61.98085
G1 X62.079 Y124.080 E62.43200
G1 X61.681 Y123.441 E62.52137
G1 X59.837 Y120.120 E62.97253
G1 X59.506 Y119.444 E63.06189
G1 X58.008 Y115.953 E63.51304
G1 X57.747 Y115.248 E63.60241
G1 X56.609 Y111.623 E64.05357
G1 X56.421 Y110.895 E64.14293
G1 X55.656 Y107.174 E64.59408
G1 X55.542 Y106.430 E64.68345
G1 X55.158 Y102.651 E65.13460
G1 X55.120 Y101.899 E65.22397
G1 X55.120 Y98.101 E65.67512
G1 X55.158 Y97.349 E65.76449
G1 X55.542 Y93.570 E66.21564
G1 X55.656 Y92.826 E66.30501
G1 X56.421 Y89.105 E66.75616
G1 X56.609 Y88.377 E66.84553
G1 X57.747 Y84.752 E67.29668
G1 X58.008 Y84.047 E67.38605
G1 X59.506 Y80.556 E67.83720
G1 X59.837 Y79.880 E67.92657
G1 X61.681 Y76.559 E68.37772
G1 X62.079 Y75.920 E68.46709
G1 X64.249 Y72.802 E68.91824
G1 X64.710 Y72.207 E69.00761
G1 X67.184 Y69.325 E69.45876
G1 X67.651 Y68.834 E69.53922
G1 X68.194 Y69.297 F6000.000
G1 X70.948 Y66.680 E69.99037 F1200.000
G1 X71.464 Y66.237 E70.07115
G1 X74.468 Y63.912 E70.52230
G1 X75.026 Y63.523 E70.60308
G1 X78.250 Y61.514 E71.05423
G1 X78.844 Y61.184 E71.13500
G1 X82.255 Y59.511 E71.58616
G1 X82.880 Y59.243 E71.66693
G1 X86.442 Y57.924 E72.11809
G1 X87.091 Y57.720 E72.19886
G1 X90.768 Y56.768 E72.65001
G1 X91.435 Y56.631 E72.73079
G1 X95.189 Y56.056 E73.18194
G1 X95.866 Y55.987 E73.26272
G1 X99.660 Y55.794 E73.71387
G1 X100.683 Y55.812 E73.83534
G1 X104.134 Y55.987 E74.24576 F1200.000
G1 X104.811 Y56.056 E74.32654
G1 X108.565 Y56.631 E74.77769
G1 X109.232 Y56.768 E74.85847
G1 X112.909 Y57.720 E75.30962
G1 X113.558 Y57.924 E75.39039
G1 X117.120 Y59.243 E75.84155
G1 X117.745 Y59.511 E75.92232
G1 X121.156 Y61.184 E76.37348
G1 X121.750 Y61.514 E76.45425
G1 X124.974 Y63.523 E76.90540
G1 X125.532 Y63.912 E76.98618
G1 X128.536 Y66.237 E77.43733
G1 X129.052 Y66.680 E77.51811
G1 X131.806 Y69.297 E77.96926
G1 X132.274 Y69.790 E78.05004
G1 X134.749 Y72.673 E78.50119
G1 X135.165 Y73.210 E78.58196
G1 X137.335 Y76.328 E79.03311
G1 X137.695 Y76.905 E79.11389
G1 X139.538 Y80.227 E79.56504
G1 X139.838 Y80.837 E79.64582
G1 X141.336 Y84.328 E80.09697
G1 X141.572 Y84.966 E80.17775
G1 X142.709 Y88.591 E80.62890
G1 X142.880 Y89.249 E80.70967
G1 X143.644 Y92.970 E81.16083
G1 X143.747 Y93.642 E81.24160
G1 X144.132 Y97.421 E81.69275
G1 X144.166 Y98.101 E81.77353
G1 X144.166 Y101.899 E82.22468
G1 X144.132 Y102.579 E82.30546
G1 X143.747 Y106.358 E82.75662
G1 X143.644 Y107.030 E82.83738
G1 X142.880 Y110.751 E83.28854
G1 X142.709 Y111.409 E83.36931
G1 X141.572 Y115.034 E83.82046
G1 X141.336 Y115.672 E83.90124
G1 X139.838 Y119.163 E84.35240
G1 X139.538 Y119.773 E84.43317
G1 X137.695 Y123.095 E84.88432
G1 X137.335 Y123.672 E84.96510
G1 X135.165 Y126.790 E85.41625
G1 X134.749 Y127.327 E85.49702
G1 X132.274 Y130.210 E85.94822
G1 X131.806 Y130.703 E86.02895
G1 X129.052 Y133.320 E86.48010
G1 X128.536 Y133.763 E86.56088
G1 X125.532 Y136.088 E87.01203
G1 X124.974 Y136.477 E87.09281
G1 X121.750 Y138.486 E87.54396
G1 X121.156 Y138.816 E87.62473
G1 X117.745 Y140.489 E88.07589
G1 X117.120 Y140.757 E88.15666
G1 X113.558 Y142.076 E88.60782
G1 X112.909 Y142.280 E88.68859
G1 X109.232 Y143.232 E89.13975
G1 X108.565 Y143.369 E89.22052
G1 X104.811 Y143.944 E89.67167
G1 X104.134 Y144.013 E89.75245
G1 X100.340 Y144.206 E90.20360
G1 X99.660 Y144.206 E90.28438
G1 X95.866 Y144.013 E90.73553
G1 X95.189 Y143.944 E90.81630
G1 X91.435 Y143.369 E91.26746
G1 X90.768 Y143.232 E91.34823
G1 X87.091 Y142.280 E91.79938
G1 X86.442 Y142.076 E91.88016
G1 X82.880 Y140.757 E92.33131
G1 X82.255 Y140.489 E92.41209
G1 X78.844 Y138.816 E92.86324
G1 X78.250 Y138.486 E92.94401
G1 X75.026 Y136.477 E93.39517
G1 X74.468 Y136.088 E93.47594
G1 X71.464 Y133.763 E93.92709
G1 X70.948 Y133.320 E94.00787
G1 X68.194 Y130.703 E94.45902
G1 X67.726 Y130.210 E94.53973
G1 X65.251 Y127.327 E94.99095
G1 X64.835 Y126.790 E95.07173
G1 X62.665 Y123.672 E95.52288
G1 X62.305 Y123.095 E95.60365
G1 X60.462 Y119.773 E96.05481
G1 X60.162 Y119.163 E96.13558
G1 X58.664 Y115.672 E96.58674
G1 X58.428 Y115.034 E96.66751
G1 X57.291 Y111.409 E97.11866
G1 X57.120 Y110.751 E97.19944
G1 X56.356 Y107.030 E97.65059
G1 X56.253 Y106.358 E97.73136
G1 X55.868 Y102.579 E98.18252
G1 X55.834 Y101.899 E98.26329
G1 X55.834 Y98.101 E98.71445
G1 X55.868 Y97.421 E98.79522
G1 X56.253 Y93.642 E99.24638
G1 X56.356 Y92.970 E99.32715
G1 X57.120 Y89.249 E99.77830
G1 X57.291 Y88.591 E99.85908
G1 X58.428 Y84.966 E100.31023
G1 X58.664 Y84.328 E100.39101
G1 X60.162 Y80.837 E100.84216
G1 X60.462 Y80.227 E100.92293
G1 X62.305 Y76.905 E101.37409
G1 X62.665 Y76.328 E101.45486
G1 X64.835 Y73.210 E101.90601
G1 X65.251 Y72.673 E101.98679
G1 X67.726 Y69.790 E102.43794
G1 X68.143 Y69.352 E102.50981
G1 E100.50981 F2400.00000
G92 E0
G1 X76.245 Y117.033 F6000.000
G1 E2.00000 F2400.00000
G1 X75.969 Y117.626 E2.07766 F1200.000
G1 X75.594 Y118.161 E2.15533
G1 X75.132 Y118.624 E2.23299
G1 X74.596 Y118.999 E2.31066
G1 X74.003 Y119.275 E2.38832
G1 X73.372 Y119.445 E2.46599
G1 X72.720 Y119.502 E2.54365
G1 X72.069 Y119.445 E2.62132
G1 X71.437 Y119.275 E2.69898
G1 X70.844 Y118.999 E2.77665
G1 X70.309 Y118.624 E2.85431
G1 X69.846 Y118.161 E2.93198
G1 X69.471 Y117.626 E3.00964
G1 X69.195 Y117.033 E3.08731
G1 X69.026 Y116.401 E3.16497
G1 X68.968 Y115.747 E3.24301
G1 X69.042 Y115.039 E3.32752
G1 X69.195 Y114.467 E3.39787
G1 X69.471 Y113.874 E3.47553
G1 X69.846 Y113.339 E3.55320
G1 X70.309 Y112.876 E3.63086
G1 X70.844 Y112.501 E3.70853
G1 X71.440 Y112.223 E3.78657
G1 X72.130 Y112.050 E3.87108
G1 X72.720 Y111.998 E3.94143 F1200.000
G1 X73.372 Y112.055 E4.01909
G1 X74.003 Y112.225 E4.09676
G1 X74.596 Y112.501 E4.17442
G1 X75.132 Y112.876 E4.25209
G1 X75.594 Y113.339 E4.32975
G1 X75.969 Y113.874 E4.40742
G1 X76.245 Y114.467 E4.48508
G1 X76.415 Y115.099 E4.56275
G1 X76.472 Y115.750 E4.64041
G1 X76.415 Y116.401 E4.71807
G1 X76.265 Y116.961 E4.78683
G1 X76.556 Y117.425 F6000.000
G1 E2.78683 F2400.00000
G92 E0
G1 X98.124 Y71.749 F6000.000
G1 E2.00000 F2400.00000
G1 X97.589 Y71.374 E2.07766 F1200.000
G1 X97.126 Y70.911 E2.15533
G1 X96.751 Y70.376 E2.23299
G1 X96.475 Y69.783 E2.31066
G1 X96.305 Y69.151 E2.38832
G1 X96.248 Y68.497 E2.46637
G1 X96.321 Y67.789 E2.55087
G1 X96.475 Y67.217 E2.62122
G1 X96.751 Y66.624 E2.69889
G1 X97.126 Y66.089 E2.77655
G1 X97.589 Y65.626 E2.85422
G1 X98.124 Y65.251 E2.93188
G1 X98.720 Y64.973 E3.00992
G1 X99.410 Y64.800 E3.09443
G1 X100.000 Y64.748 E3.16478 F1200.000
G1 X100.651 Y64.805 E3.24244
G1 X101.283 Y64.975 E3.32011
G1 X101.876 Y65.251 E3.39777
G1 X102.411 Y65.626 E3.47544
G1 X102.874 Y66.089 E3.55310
G1 X103.249 Y66.624 E3.63077
G1 X103.525 Y67.217 E3.70843
G1 X103.695 Y67.849 E3.78610
G1 X103.752 Y68.500 E3.86376
G1 X103.694 Y69.155 E3.94180
G1 X103.499 Y69.839 E4.02631
G1 X103.249 Y70.376 E4.09666
G1 X102.874 Y70.911 E4.17433
G1 X102.411 Y71.374 E4.25199
G1 X101.876 Y71.749 E4.32965
G1 X101.283 Y72.025 E4.40732
G1 X100.651 Y72.195 E4.48498
G1 X100.000 Y72.252 E4.56265
G1 X99.349 Y72.195 E4.64031
G1 X98.717 Y72.025 E4.71798
G1 X98.192 Y71.781 E4.78673
G1 X97.684 Y71.986 F6000.000
G1 E2.78673 F2400.00000
G92 E0
G1 X73.441 Y122.051 F6000.000
G1 E2.00000 F2400.00000
G1 X76.215 Y120.210 E2.39533 F1200.000
G1 X76.870 Y119.607 E2.50113
G1 X77.424 Y118.909 E2.60692
G1 X77.861 Y118.133 E2.71272
G1 X78.171 Y117.298 E2.81852
G1 X78.346 Y116.424 E2.92432
G1 X78.429 Y114.384 E3.16679
G1 X95.961 Y104.262 E5.57119
G1 X97.787 Y105.216 E5.81585
G1 X98.649 Y105.502 E5.92372
G1 X99.546 Y105.648 E6.03160
G1 X100.454 Y105.648 E6.13947
G1 X101.351 Y105.502 E6.24734
G1 X102.213 Y105.216 E6.35521
G1 X104.039 Y104.262 E6.59988
G1 X121.571 Y114.384 E9.00427
G1 X121.654 Y116.424 E9.24674
G1 X121.829 Y117.298 E9.35254
G1 X122.139 Y118.133 E9.45834
G1 X122.576 Y118.909 E9.56414
G1 X123.130 Y119.607 E9.66993
G1 X123.785 Y120.210 E9.77573
G1 X126.559 Y122.051 E10.17106
G1 X122.268 Y126.130 E10.87417
G1 X119.305 Y128.389 E11.31668
G1 X116.115 Y130.314 E11.75918
G1 X112.735 Y131.882 E12.20169
G1 X109.205 Y133.074 E12.64420
G1 X105.567 Y133.877 E13.08670
G1 X101.863 Y134.280 E13.52920
G1 X98.137 Y134.280 E13.97171
G1 X94.433 Y133.877 E14.41422
G1 X90.795 Y133.074 E14.85672
G1 X87.265 Y131.882 E15.29923
G1 X83.885 Y130.314 E15.74173
G1 X80.695 Y128.389 E16.18424
G1 X77.732 Y126.130 E16.62674
G1 X73.495 Y122.102 E17.32095
G1 X74.582 Y122.150 F6000.000
G1 X76.656 Y120.774 E17.61656 F1200.000
G1 X77.395 Y120.095 E17.73573
G1 X78.018 Y119.309 E17.85491
G1 X78.511 Y118.434 E17.97408
G1 X78.860 Y117.493 E18.09325
G1 X79.057 Y116.510 E18.21243
G1 X79.126 Y114.806 E18.41489
G1 X95.979 Y105.077 E20.72597
G1 X97.508 Y105.875 E20.93085
G1 X98.478 Y106.198 E21.05236
G1 X99.488 Y106.362 E21.17387
G1 X100.512 Y106.362 E21.29538
G1 X101.522 Y106.198 E21.41689
